svg/transport/engine_fill.svg

<?xml version="1.0" encoding="UTF-8"?>
<svg width="24px" height="24px" viewBox="0 0 24 24" version="1.1" xmlns="http://www.w3.org/2000/svg" xmlns:xlink="http://www.w3.org/1999/xlink">
    <title>engine_fill</title>
    <g id="页面-1" stroke="none" stroke-width="1" fill="none" fill-rule="evenodd">
        <g id="Transport" transform="translate(-480.000000, -144.000000)">
            <g id="engine_fill" transform="translate(480.000000, 144.000000)">
                 <path d="M24,0 L24,24 L0,24 L0,0 L24,0 Z M12.5934901,23.257841 L12.5819402,23.2595131 L12.5108777,23.2950439 L12.4918791,23.2987469 L12.4918791,23.2987469 L12.4767152,23.2950439 L12.4056548,23.2595131 C12.3958229,23.2563662 12.3870493,23.2590235 12.3821421,23.2649074 L12.3780323,23.275831 L12.360941,23.7031097 L12.3658947,23.7234994 L12.3769048,23.7357139 L12.4804777,23.8096931 L12.4953491,23.8136134 L12.4953491,23.8136134 L12.5071152,23.8096931 L12.6106902,23.7357139 L12.6232938,23.7196733 L12.6232938,23.7196733 L12.6266527,23.7031097 L12.609561,23.275831 C12.6075724,23.2657013 12.6010112,23.2592993 12.5934901,23.257841 L12.5934901,23.257841 Z M12.8583906,23.1452862 L12.8445485,23.1473072 L12.6598443,23.2396597 L12.6498822,23.2499052 L12.6498822,23.2499052 L12.6471943,23.2611114 L12.6650943,23.6906389 L12.6699349,23.7034178 L12.6699349,23.7034178 L12.678386,23.7104931 L12.8793402,23.8032389 C12.8914285,23.8068999 12.9022333,23.8029875 12.9078286,23.7952264 L12.9118235,23.7811639 L12.8776777,23.1665331 C12.8752882,23.1545897 12.8674102,23.1470016 12.8583906,23.1452862 L12.8583906,23.1452862 Z M12.1430473,23.1473072 C12.1332178,23.1423925 12.1221763,23.1452606 12.1156365,23.1525954 L12.1099173,23.1665331 L12.0757714,23.7811639 C12.0751323,23.7926639 12.0828099,23.8018602 12.0926481,23.8045676 L12.108256,23.8032389 L12.3092106,23.7104931 L12.3186497,23.7024347 L12.3186497,23.7024347 L12.3225043,23.6906389 L12.340401,23.2611114 L12.337245,23.2485176 L12.337245,23.2485176 L12.3277531,23.2396597 L12.1430473,23.1473072 Z" id="MingCute" fill-rule="nonzero"></path>
                <path d="M12,3 C12.5523,3 13,3.44772 13,4 C13,4.55228 12.5523,5 12,5 L11,5 L11,6 L13.7639,6 C14.0744,6 14.3806,6.07229 14.6584,6.21115 L17.8944,7.82918 C18.572,8.16796 19,8.86049 19,9.61803 L19,12 L20,12 L20,11 C20,10.4477 20.4477,10 21,10 C21.5523,10 22,10.4477 22,11 L22,15 C22,15.5523 21.5523,16 21,16 C20.4477,16 20,15.5523 20,15 L20,14 L19,14 L19,15.5 C19,16.1295 18.7036,16.7223 18.2,17.1 L14.8667,19.6 C14.5205,19.8596 14.0994,20 13.6667,20 L5,20 C3.89543,20 3,19.1046 3,18 L3,8 C3,6.89543 3.89543,6 5,6 L9,6 L9,5 L8,5 C7.44772,5 7,4.55228 7,4 C7,3.44772 7.44772,3 8,3 L12,3 Z M11.0145,9.64251 C10.5747286,9.37865643 10.013691,9.49221607 9.70828013,9.88895973 L9.64251,9.9855 L8.15159,12.4704 C7.7678755,13.10994 8.18633007,13.914818 8.90222564,13.993707 L9.01766,14 L10.2338,14 L9.64251,14.9855 C9.35836,15.4591 9.51192,16.0733 9.9855,16.3575 C10.4252714,16.6213071 10.9862745,16.5077959 11.2917205,16.1110434 L11.3575,16.0145 L12.8484,13.5296 C13.232105,12.890155 12.813668,12.0851915 12.0977399,12.0062938 L11.9823,12 L10.7662,12 L11.3575,11.0145 C11.6416,10.5409 11.4881,9.92666 11.0145,9.64251 Z" id="形状" fill="#09244B"></path>
            </g>
        </g>
    </g>
</svg>

<svg xmlns="http://www.w3.org/2000/svg" width="24" height="24"><g fill="none" fill-rule="evenodd"><path d="M24 0v24H0V0h24ZM12.593 23.258l-.011.002-.071.035-.02.004-.014-.004-.071-.035c-.01-.004-.019-.001-.024.005l-.004.01-.017.428.005.02.01.013.104.074.015.004.012-.004.104-.074.012-.016.004-.017-.017-.427c-.002-.01-.009-.017-.017-.018Zm.265-.113-.013.002-.185.093-.01.01-.003.011.018.43.005.012.008.007.201.093c.012.004.023 0 .029-.008l.004-.014-.034-.614c-.003-.012-.01-.02-.02-.022Zm-.715.002a.023.023 0 0 0-.027.006l-.006.014-.034.614c0 .012.007.02.017.024l.015-.002.201-.093.01-.008.004-.011.017-.43-.003-.012-.01-.01-.184-.092Z"/><path fill="#09244B" d="M12 3a1 1 0 1 1 0 2h-1v1h2.764a2 2 0 0 1 .894.211l3.236 1.618A2 2 0 0 1 19 9.618V12h1v-1a1 1 0 1 1 2 0v4a1 1 0 1 1-2 0v-1h-1v1.5a2 2 0 0 1-.8 1.6l-3.333 2.5a2 2 0 0 1-1.2.4H5a2 2 0 0 1-2-2V8a2 2 0 0 1 2-2h4V5H8a1 1 0 0 1 0-2h4Zm-.985 6.643a1 1 0 0 0-1.307.246l-.065.097-1.491 2.484a1.01 1.01 0 0 0 .75 1.524l.116.006h1.216l-.591.986a1 1 0 0 0 1.649 1.125l.066-.096 1.49-2.485a1.01 1.01 0 0 0-.75-1.524L11.982 12h-1.216l.591-.985a1 1 0 0 0-.342-1.372Z"/></g></svg>
